svg/fluentui-system-icons/ic_fluent_open_48_regular.svg

<svg width="48" height="48" viewBox="0 0 48 48" fill="none" xmlns="http://www.w3.org/2000/svg">
<path d="M12.25 8.5C10.1789 8.5 8.49999 10.1789 8.49999 12.25V35.75C8.49999 37.8211 10.1789 39.5 12.25 39.5H35.7499C37.821 39.5 39.4999 37.8211 39.4999 35.75V27.25C39.4999 26.5596 40.0596 26 40.7499 26C41.4403 26 41.9999 26.5596 41.9999 27.25V35.75C41.9999 39.2018 39.2017 42 35.7499 42H12.25C8.79821 42 6 39.2018 6 35.75V12.25C6 8.79822 8.79821 6 12.25 6H20.75C21.4403 6 22 6.55964 22 7.25C22 7.94036 21.4403 8.5 20.75 8.5H12.25ZM27.0002 7.25C27.0002 6.55964 27.5598 6 28.2502 6H40.75C41.4404 6 42 6.55964 42 7.25V19.75C42 20.4404 41.4404 21 40.75 21C40.0597 21 39.5 20.4404 39.5 19.75V10.2676L29.1338 20.6338C28.6457 21.1219 27.8542 21.1219 27.3661 20.6338C26.8779 20.1456 26.8779 19.3542 27.3661 18.866L37.732 8.5H28.2502C27.5598 8.5 27.0002 7.94036 27.0002 7.25Z" fill="#212121"/>
</svg>

<svg xmlns="http://www.w3.org/2000/svg" width="48" height="48"><path d="M12.25 8.5a3.75 3.75 0 0 0-3.75 3.75v23.5a3.75 3.75 0 0 0 3.75 3.75h23.5a3.75 3.75 0 0 0 3.75-3.75v-8.5a1.25 1.25 0 0 1 2.5 0v8.5A6.25 6.25 0 0 1 35.75 42h-23.5A6.25 6.25 0 0 1 6 35.75v-23.5A6.25 6.25 0 0 1 12.25 6h8.5a1.25 1.25 0 0 1 0 2.5h-8.5ZM27 7.25c0-.69.56-1.25 1.25-1.25h12.5c.69 0 1.25.56 1.25 1.25v12.5a1.25 1.25 0 1 1-2.5 0v-9.482L29.134 20.634a1.25 1.25 0 0 1-1.768-1.768L37.732 8.5H28.25c-.69 0-1.25-.56-1.25-1.25Z"/></svg>
